src/assets/img/unsorted/emotes/68.svg

<svg xmlns:xlink="http://www.w3.org/1999/xlink" height="100.8" width="132.65" xmlns="http://www.w3.org/2000/svg"><g transform="translate(77.75 73.55)"><use height="28.5" transform="translate(-12.85 -14.6)" width="25.5" xlink:href="#a"/><use height="34" transform="translate(-21.95 -11.1)" width="48.4" xlink:href="#b"/><use height="10.85" transform="translate(-8.75 -8.7)" width="17.55" xlink:href="#c"/></g><defs><g id="a" fill-rule="evenodd"><path d="M8.9-10.45q3.75 4.15 3.75 10.1 0 5.9-3.75 10.05t-9 4.2q-5.3-.05-9-4.2-3.75-4.15-3.75-10.05 0-5.95 3.75-10.1 3.7-4.15 9-4.15 5.25 0 9 4.15" fill="url(#d)" transform="translate(12.85 14.6)"/><path d="M7.2-1.05q3 .6 3 1.45t-3 1.5l-7.15.6-7.2-.6q-3-.65-2.95-1.5-.05-.85 2.95-1.45l7.2-.65 7.15.65" fill="#9c0" transform="translate(12.85 14.6)"/></g><g id="b" transform="translate(21.9 19.75)"><use height="18.35" transform="translate(-11.45 -5.95)" width="23.25" xlink:href="#e"/><use height="2.4" transform="translate(-20.35 -17.6)" width="2.4" xlink:href="#f"/><use height="2.4" transform="translate(-17.45 -14.25)" width="2.4" xlink:href="#f"/><use height="2.4" transform="translate(-13.3 -15.35)" width="2.4" xlink:href="#f"/><use height="2.4" transform="translate(10.95 -13.25)" width="2.4" xlink:href="#f"/><use height="2.4" transform="translate(20.45 -15.35)" width="2.4" xlink:href="#f"/><use height="2.4" transform="translate(15.55 -15.55)" width="2.4" xlink:href="#f"/><use height="2.4" transform="translate(-15.35 -18.7)" width="2.4" xlink:href="#f"/><use height="2.4" transform="translate(15.45 -11.95)" width="2.4" xlink:href="#f"/></g><g id="g"><path d="M3-.9q.9-.95.6-2.4-.45-2.35-2.55-1.6-.65.2-.35.95.45 1.2-.5 1.35-2.65.55-2.2-1.6.1-.6-.4-.6-2.35-.1-2.15 2.35Q-4.4-1-3.6.05l-.25.15Q-5.6 1.45-5.1 3.95l-3.75.15Q-11.5 3.25-11 .15q.75-4.7 5.1-7.3 4.05-2.35 8.6-1 3.8.95 6.15 3.95 1.4 1.65 2.05 3.65.7 2-.4 3.6-.65.85-2.8.55l-2.2-.65q.25-.65 0-1.3Q4.85-.2 3-.9" fill="#333" fill-rule="evenodd" transform="translate(11.6 9.15)"/><path d="m3-.9-.05-.05-3.6-.25Q-2.3-.85-3.6.05q-.8-1.05-.95-2.5-.2-2.45 2.15-2.35.5 0 .4.6-.45 2.15 2.2 1.6.95-.15.5-1.35-.3-.75.35-.95 2.1-.75 2.55 1.6.3 1.45-.6 2.4" fill-rule="evenodd" transform="translate(11.6 9.15)"/><path d="M-3.6.05q1.3-.9 2.95-1.25l3.6.25L3-.9q1.85.7 2.5 2.55.25.65 0 1.3l-.75-.3q-4.6-1.6-9.05.9l-.8.4Q-5.6 1.45-3.85.2l.25-.15" fill="#c00" fill-rule="evenodd" transform="translate(11.6 9.15)"/><path d="m-5.1 3.95.8-.4q4.45-2.5 9.05-.9l.75.3 2.2.65q2.15.3 2.8-.55 1.1-1.6.4-3.6-.65-2-2.05-3.65-2.35-3-6.15-3.95-4.55-1.35-8.6 1-4.35 2.6-5.1 7.3-.5 3.1 2.15 3.95l3.75-.15M2.35 5.3q.1 1.35 1.25 1.95M.6 4.8v3.9m-2.25-3.4q0 .9-.3 1.75" fill="none" stroke="#333" stroke-linecap="round" stroke-linejoin="round" transform="translate(11.6 9.15)"/></g><g id="c"><path d="M8.3-2.3 8.05-.45l-.9 1.6q-1 1.2-2.3 1.4l-.5.05-1-.15q-1.05-.35-1.8-1.3Q.5-.2.4-1.95v-.35Q.35-4.35 1.55-5.75q1.1-1.45 2.8-1.45 1.65 0 2.8 1.45Q8.3-4.35 8.3-2.3m-16.55.05q-.05-2 1.15-3.45Q-6-7.15-4.3-7.15q1.65 0 2.8 1.45t1.15 3.45v.3Q-.45-.15-1.5 1.2l-1.3 1.1-1.5.35-1.1-.2q-.95-.3-1.7-1.25Q-7.7.5-8-.4q-.3-.85-.25-1.85" fill="#fff" fill-rule="evenodd" transform="translate(8.75 7.7)"/><path d="M8.3-2.3 8.05-.45l-.9 1.6q-1 1.2-2.3 1.4l-.5.05-1-.15q-1.05-.35-1.8-1.3Q.5-.2.4-1.95v-.35Q.35-4.35 1.55-5.75q1.1-1.45 2.8-1.45 1.65 0 2.8 1.45Q8.3-4.35 8.3-2.3m-16.55.05q-.05-2 1.15-3.45Q-6-7.15-4.3-7.15q1.65 0 2.8 1.45t1.15 3.45v.3Q-.45-.15-1.5 1.2l-1.3 1.1-1.5.35-1.1-.2q-.95-.3-1.7-1.25Q-7.7.5-8-.4q-.3-.85-.25-1.85" fill="none" stroke="#666" stroke-linecap="round" stroke-linejoin="round" transform="translate(8.75 7.7)"/><path d="m-4.3-2.5.2-.5.45-.15.45.15.2.5-.2.45-.45.2q-.25 0-.45-.2l-.2-.45m7.25 0 .2-.5.45-.15.45.15.2.5-.2.45-.45.2q-.25 0-.45-.2l-.2-.45" fill-rule="evenodd" transform="translate(8.75 7.7)"/></g><use height="18.35" width="23.25" xlink:href="#g" id="e"/><use height="2.4" width="2.4" xlink:href="#h" id="f"/><radialGradient cx="0" cy="0" gradientTransform="matrix(.0288 0 0 .0247 -.1 -.4)" gradientUnits="userSpaceOnUse" id="d" r="819.2" spreadMethod="pad"><stop offset="0" stop-color="#aad658"/><stop offset=".537" stop-color="#acdd51" stop-opacity="0"/></radialGradient><path d="M.85-.85q.35.35.35.85T.85.85Q.5 1.2 0 1.2T-.85.85Q-1.2.5-1.2 0t.35-.85Q-.5-1.2 0-1.2t.85.35" fill="#fff" fill-rule="evenodd" transform="translate(1.2 1.2)" id="h"/></defs></svg>

<?xml version="1.0" encoding="UTF-8" standalone="no"?>
<svg xmlns:xlink="http://www.w3.org/1999/xlink" height="100.8px" width="132.65px" xmlns="http://www.w3.org/2000/svg">
  <g transform="matrix(1.0, 0.0, 0.0, 1.0, 77.75, 73.55)">
    <use height="28.5" transform="matrix(1.0, 0.0, 0.0, 1.0, -12.85, -14.6)" width="25.5" xlink:href="#shape0"/>
    <use height="34.0" transform="matrix(1.0, 0.0, 0.0, 1.0, -21.95, -11.1)" width="48.4" xlink:href="#sprite0"/>
    <use height="10.85" transform="matrix(1.0, 0.0, 0.0, 1.0, -8.75, -8.7)" width="17.55" xlink:href="#shape3"/>
  </g>
  <defs>
    <g id="shape0" transform="matrix(1.0, 0.0, 0.0, 1.0, 12.85, 14.6)">
      <path d="M8.9 -10.45 Q12.65 -6.3 12.65 -0.35 12.65 5.55 8.9 9.7 5.15 13.85 -0.1 13.9 -5.4 13.85 -9.1 9.7 -12.85 5.55 -12.85 -0.35 -12.85 -6.3 -9.1 -10.45 -5.4 -14.6 -0.1 -14.6 5.15 -14.6 8.9 -10.45" fill="url(#gradient0)" fill-rule="evenodd" stroke="none"/>
      <path d="M7.2 -1.05 Q10.2 -0.45 10.2 0.4 10.2 1.25 7.2 1.9 L0.05 2.5 -7.15 1.9 Q-10.15 1.25 -10.1 0.4 -10.15 -0.45 -7.15 -1.05 L0.05 -1.7 7.2 -1.05" fill="#99cc00" fill-rule="evenodd" stroke="none"/>
    </g>
    <radialGradient cx="0" cy="0" gradientTransform="matrix(0.0288, 0.0, 0.0, 0.0247, -0.1, -0.4)" gradientUnits="userSpaceOnUse" id="gradient0" r="819.2" spreadMethod="pad">
      <stop offset="0.0" stop-color="#aad658"/>
      <stop offset="0.5372549019607843" stop-color="#acdd51" stop-opacity="0.0"/>
    </radialGradient>
    <g id="sprite0" transform="matrix(1.0, 0.0, 0.0, 1.0, 21.9, 19.75)">
      <use height="18.35" transform="matrix(1.0, 0.0, 0.0, 1.0, -11.45, -5.95)" width="23.25" xlink:href="#sprite1"/>
      <use height="2.4" transform="matrix(1.0, 0.0, 0.0, 1.0, -20.35, -17.6)" width="2.4" xlink:href="#sprite2"/>
      <use height="2.4" transform="matrix(1.0, 0.0, 0.0, 1.0, -17.45, -14.25)" width="2.4" xlink:href="#sprite2"/>
      <use height="2.4" transform="matrix(1.0, 0.0, 0.0, 1.0, -13.3, -15.35)" width="2.4" xlink:href="#sprite2"/>
      <use height="2.4" transform="matrix(1.0, 0.0, 0.0, 1.0, 10.95, -13.25)" width="2.4" xlink:href="#sprite2"/>
      <use height="2.4" transform="matrix(1.0, 0.0, 0.0, 1.0, 20.45, -15.35)" width="2.4" xlink:href="#sprite2"/>
      <use height="2.4" transform="matrix(1.0, 0.0, 0.0, 1.0, 15.55, -15.55)" width="2.4" xlink:href="#sprite2"/>
      <use height="2.4" transform="matrix(1.0, 0.0, 0.0, 1.0, -15.35, -18.7)" width="2.4" xlink:href="#sprite2"/>
      <use height="2.4" transform="matrix(1.0, 0.0, 0.0, 1.0, 15.45, -11.95)" width="2.4" xlink:href="#sprite2"/>
    </g>
    <g id="sprite1" transform="matrix(1.0, 0.0, 0.0, 1.0, 11.6, 9.15)">
      <use height="18.35" transform="matrix(1.0, 0.0, 0.0, 1.0, -11.6, -9.15)" width="23.25" xlink:href="#shape1"/>
    </g>
    <g id="shape1" transform="matrix(1.0, 0.0, 0.0, 1.0, 11.6, 9.15)">
      <path d="M3.0 -0.9 Q3.9 -1.85 3.6 -3.3 3.15 -5.65 1.05 -4.9 0.4 -4.7 0.7 -3.95 1.15 -2.75 0.2 -2.6 -2.45 -2.05 -2.0 -4.2 -1.9 -4.8 -2.4 -4.8 -4.75 -4.9 -4.55 -2.45 -4.4 -1.0 -3.6 0.05 L-3.85 0.2 Q-5.6 1.45 -5.1 3.95 L-8.85 4.1 Q-11.5 3.25 -11.0 0.15 -10.25 -4.55 -5.9 -7.15 -1.85 -9.5 2.7 -8.15 6.5 -7.2 8.85 -4.2 10.25 -2.55 10.9 -0.55 11.6 1.45 10.5 3.05 9.85 3.9 7.7 3.6 L5.5 2.95 Q5.75 2.3 5.5 1.65 4.85 -0.2 3.0 -0.9" fill="#333333" fill-rule="evenodd" stroke="none"/>
      <path d="M3.0 -0.9 L2.95 -0.95 -0.65 -1.2 Q-2.3 -0.85 -3.6 0.05 -4.4 -1.0 -4.55 -2.45 -4.75 -4.9 -2.4 -4.8 -1.9 -4.8 -2.0 -4.2 -2.45 -2.05 0.2 -2.6 1.15 -2.75 0.7 -3.95 0.4 -4.7 1.05 -4.9 3.15 -5.65 3.6 -3.3 3.9 -1.85 3.0 -0.9" fill="#000000" fill-rule="evenodd" stroke="none"/>
      <path d="M-3.6 0.05 Q-2.3 -0.85 -0.65 -1.2 L2.95 -0.95 3.0 -0.9 Q4.85 -0.2 5.5 1.65 5.75 2.3 5.5 2.95 L4.75 2.65 Q0.15 1.05 -4.3 3.55 L-5.1 3.95 Q-5.6 1.45 -3.85 0.2 L-3.6 0.05" fill="#cc0000" fill-rule="evenodd" stroke="none"/>
      <path d="M-5.1 3.95 L-4.3 3.55 Q0.15 1.05 4.75 2.65 L5.5 2.95 7.7 3.6 Q9.85 3.9 10.5 3.05 11.6 1.45 10.9 -0.55 10.25 -2.55 8.85 -4.2 6.5 -7.2 2.7 -8.15 -1.85 -9.5 -5.9 -7.15 -10.25 -4.55 -11.0 0.15 -11.5 3.25 -8.85 4.1 L-5.1 3.95 M2.35 5.3 Q2.45 6.65 3.6 7.25 M0.6 4.8 L0.6 8.7 M-1.65 5.3 Q-1.65 6.2 -1.95 7.05" fill="none" stroke="#333333" stroke-linecap="round" stroke-linejoin="round" stroke-width="1.0"/>
    </g>
    <g id="sprite2" transform="matrix(1.0, 0.0, 0.0, 1.0, 1.2, 1.2)">
      <use height="2.4" transform="matrix(1.0, 0.0, 0.0, 1.0, -1.2, -1.2)" width="2.4" xlink:href="#shape2"/>
    </g>
    <g id="shape2" transform="matrix(1.0, 0.0, 0.0, 1.0, 1.2, 1.2)">
      <path d="M0.85 -0.85 Q1.2 -0.5 1.2 0.0 1.2 0.5 0.85 0.85 0.5 1.2 0.0 1.2 -0.5 1.2 -0.85 0.85 -1.2 0.5 -1.2 0.0 -1.2 -0.5 -0.85 -0.85 -0.5 -1.2 0.0 -1.2 0.5 -1.2 0.85 -0.85" fill="#ffffff" fill-rule="evenodd" stroke="none"/>
    </g>
    <g id="shape3" transform="matrix(1.0, 0.0, 0.0, 1.0, 8.75, 7.7)">
      <path d="M8.3 -2.3 L8.05 -0.45 7.15 1.15 Q6.15 2.35 4.85 2.55 L4.35 2.6 3.35 2.45 Q2.3 2.1 1.55 1.15 0.5 -0.2 0.4 -1.95 L0.4 -2.3 Q0.35 -4.35 1.55 -5.75 2.65 -7.2 4.35 -7.2 6.0 -7.2 7.15 -5.75 8.3 -4.35 8.3 -2.3 M-8.25 -2.25 Q-8.3 -4.25 -7.1 -5.7 -6.0 -7.15 -4.3 -7.15 -2.65 -7.15 -1.5 -5.7 -0.35 -4.25 -0.35 -2.25 L-0.35 -1.95 Q-0.45 -0.15 -1.5 1.2 L-2.8 2.3 -4.3 2.65 -5.4 2.45 Q-6.35 2.15 -7.1 1.2 -7.7 0.5 -8.0 -0.4 -8.3 -1.25 -8.25 -2.25" fill="#ffffff" fill-rule="evenodd" stroke="none"/>
      <path d="M8.3 -2.3 L8.05 -0.45 7.15 1.15 Q6.15 2.35 4.85 2.55 L4.35 2.6 3.35 2.45 Q2.3 2.1 1.55 1.15 0.5 -0.2 0.4 -1.95 L0.4 -2.3 Q0.35 -4.35 1.55 -5.75 2.65 -7.2 4.35 -7.2 6.0 -7.2 7.15 -5.75 8.3 -4.35 8.3 -2.3 M-8.25 -2.25 Q-8.3 -4.25 -7.1 -5.7 -6.0 -7.15 -4.3 -7.15 -2.65 -7.15 -1.5 -5.7 -0.35 -4.25 -0.35 -2.25 L-0.35 -1.95 Q-0.45 -0.15 -1.5 1.2 L-2.8 2.3 -4.3 2.65 -5.4 2.45 Q-6.35 2.15 -7.1 1.2 -7.7 0.5 -8.0 -0.4 -8.3 -1.25 -8.25 -2.25" fill="none" stroke="#666666" stroke-linecap="round" stroke-linejoin="round" stroke-width="1.0"/>
      <path d="M-4.3 -2.5 L-4.1 -3.0 -3.65 -3.15 -3.2 -3.0 -3.0 -2.5 -3.2 -2.05 -3.65 -1.85 Q-3.9 -1.85 -4.1 -2.05 L-4.3 -2.5" fill="#000000" fill-rule="evenodd" stroke="none"/>
      <path d="M2.95 -2.5 L3.15 -3.0 3.6 -3.15 4.05 -3.0 4.25 -2.5 4.05 -2.05 3.6 -1.85 Q3.35 -1.85 3.15 -2.05 L2.95 -2.5" fill="#000000" fill-rule="evenodd" stroke="none"/>
    </g>
  </defs>
</svg>
